X:1
T:Lesson 5 - The Old Gray Goose
M:C
K:A
L:1/4
vc c/B/ A A|B B/B/ c/B/ A|ue e/d/ c c/c/|B/A/B/c/ A2|
vc c/d/ e e|f f e/d/ c|c c/d/ e e|f f e2|
vc c/B/ A A|B B/B/ c/B/ A|e e/d/ c c/c/|B/A/B/c/ A2|]
